X: 97
T: POLKA: Pop No. 2
C: C: Damien Mullane; S: Damien Mullane
C: Set Leaders: Olya, Vova
Z: Oleg Naumov arr.; jeff_lindqvist at The Session
N: https://thesession.org/members/26966/sets/92364
R: Polka
M: 2/4
L: 1/8
Q: 1/4=140
K: Amaj
|:"A"A2 EA|"A"ce "D"c2-|cc BA|"D"ed dc|
"F#m"A2 EA|"F#m"A/B/c/d/ "E"e2-|ee dc|"E"ed dc:||
|:"A"A2 EA|"C#m"ce cB|"D"A2 EA|"E"ef e/d/c/B/|
"F#m (A)"A2 EA|"C#m"ce cB|"D"A2 EA|1 "E"ef e/d/c/B/:|2 "E"e2 e/d/c/B/||

